X:1
T: Katie Robertson
C:Bruce Shawyer
R:Jig
I:speed 180
K:G
M:6/8
L:1/16
(3def|g4g2 d4c2|B2A2B2 G2A2B2|c2d2e2 d2c2B2|A2B2G2 F2E2D2|g4g2 d4c2|B2A2B2 G2A2B2|c2A2F2 D2E2F2|G6 G4(3def|
g4g2 d4c2|B2A2B2 G2A2B2|c2d2e2 d2c2B2|A2B2G2 F2E2D2|g4g2 d4c2|B2A2B2 G2A2B2|c2A2F2 D2E2F2|G6 G2F2G2|
A4A2 D2F2A2|B4B2 G2A2B2|c2d2e2 d2c2B2|A2B2G2 F2E2D2|A4A2 D2F2A2|B4B2 G2A2B2|c2A2F2 D2E2F2|G6 G2F2G2|
A4A2 D2F2A2|B4B2 G2A2B2|c2d2e2 d2c2B2|A2B2G2 F2E2D2|A4A2 D2F2A2|B4B2 G2A2B2|c2A2F2 D2E2F2|G6 G4||
